X:1
T:Title
%%score { ( 1 3 ) | ( 2 4 ) }
L:1/8
M:12/8
K:Db
V:1 treble nm="Grand Piano"
V:3 treble 
V:2 bass 
V:4 bass 
V:1
 z6 z3[Q:1/4=113] [A,DF]2 [A,EG] | [DFA]2 [A,FA] [B,=G]A[_FB] [=FA]3 [Fd]2 [Fc] | %2
 [Gc]2 [GB] [Gd]2 [CGB] [DFA]3 [A,EG]2 [A,DF] | E2 =D E2 F G2 A c2 B | A6 .F3 F2 G | %5
 A2 A =GAB A3 [Ff]2 [Fc] | [Ge]2 [Gd] .[Gd]2 [CGB] [DFA]3 [A,FA]2 [FB] | %7
 c2 c B2 c [=Gd]3 [Gc]2 [GB] |[M:9/8] e6 .A3 |[M:3/8] A2 d |[M:6/4] .c12 | .d12 | %12
 [GB]2 [GB] [AB]2 [AB] [=GB]3 [Gc]2 [Gd] | .e12 | .d12 | .B12 | A2 F A2 d c3 A2 [Ge] | %17
[M:9/8] d6- d2 z |] %18
V:2
 z6 z3 D,2 D, | D,2 D, z A,[D,G,] [D,A,]3 [D,A,]2 [D,A,] | [D,B,]2 [D,B,] [D,B,]2 D, D,3 D,2 D, | %3
 C2 _C =C2 D E2 F A2 G | F6 .D3 D2 E | F2 F _F2 F =F3[K:bass] [D,A,]2 [D,=A,] | %6
 [D,B,]2 [D,B,] z[K:treble] c[K:bass]D, D,3 D,2 [D,A,] | %7
 [E,A,E]2 [E,A,E] [E,=G,E]2 [E,A,E] [E,B,]3 [E,E]2 [E,D] |[M:9/8][K:treble] A6 z3 |[M:3/8] z3 | %10
[M:6/4] z2[K:bass] [A,,A,] [A,,A,]2 [A,,A,] .[A,,A,]6 | %11
 z2 [D,A,] [D,B,]2 [D,B,] .[D,A,]3 [D,D]2 [D,D] | [G,D]2 [G,D] [F,=D]2 [F,D] [E,E]3 [E,E]2 [E,_D] | %13
 .[CA]6 z6 | z2[K:bass] [D,A,] [D,A,]2 [D,A,] .[D,D]6 | %15
 z2 [G,D] [G,D]2 [G,D] .[G,D]3[K:treble] [G,DG]2 [G,DG] | %16
 [A,DF]2 [A,D] [A,DF]2 [A,DF] [A,EG]3 [A,CG]2[K:bass] [A,,A,] |[M:9/8] .A,3 z3 z3 |] %18
V:3
 x12 | z3 ._F3 z6 | x12 | x12 | x12 | x12 | x12 | x12 |[M:9/8] x9 |[M:3/8] x3 | %10
[M:6/4] z2 G G2 G G2 A c2 e | z2 F G2 G .F3 [FA]2 [FA] | x12 | z2 A =G2 G ._G3 f2 f | %14
 z2 F F2 F F2 A d2 c | z2 G G2 G .G3 B2 B | x12 |[M:9/8] F2 F G2 G .F3 |] %18
V:4
 x12 | z3 .D,3 z6 | x12 | x12 | x12 | x9[K:bass] x3 | z3 .[D,B,]3[K:treble][K:bass] z6 | x12 | %8
[M:9/8][K:treble] [A,C]6- [A,C]2 z |[M:3/8] x3 |[M:6/4] x2[K:bass] x10 | x12 | x12 | %13
 .A,2- .[A,-C] .[A,-B,]2 .[A,-B,] .[A,C]6 | x2[K:bass] x10 | x9[K:treble] x3 | x11[K:bass] x | %17
[M:9/8] D,2- [D,-A,] [D,-B,]2 [D,-B,] [D,A,-]2 A, |] %18

